X:1
T:Title
%%score { ( 1 3 ) | 2 }
L:1/8
Q:1/4=120
M:6/4
K:Bb
V:1 treble nm="Grand Piano"
V:3 treble 
V:2 bass 
V:1
 [DF]2 [DF]2 [DF]2 [DF]2 [_D=E]2 [=DF]2 | G2 G2 G2 .B6 | A4 G2 E2 F2 A2 | [EG]6 .[DF]6 | %4
w: E.~S.~Lorenz * * * * *||||
 [DF]2 [DF]2 [DF]2 [DF]2 [_D=E]2 [=DF]2 | G2 A2 B2 .[=Ec]6 | d4 B2 G2 F2 d2 | c6 .[DB]6 | %8
w: ||||
 [Fd]4 [DB]2 [EG]2 [DF]2 [Fd]2 | d6 .c6 | A2 G2 c2 A2 G2 F2 | [EG]6 [DF]4 [DF]2 | %12
w: ||||
 G2 ^F2 GG [FA]4 [FA]2 | z4 B2 z6 | d4 B2 G2 F2 d2 | c6 .[DB]6 |] %16
w: ||||
V:2
 [B,,B,]2 [B,,B,]2 [B,,B,]2 [B,,B,]2 [B,,B,]2 [B,,B,]2 | [E,B,E]2 [E,B,E]2 [E,B,E]2 .[E,G,E]6 | %2
 [F,E]4 [F,G,E]2 [F,A,C]2 [F,A,D]2 [F,CE]2 | [B,,B,]6 .[B,,B,]6 | %4
 [B,,B,]2 [B,,B,]2 [B,,B,]2 [B,,B,]2 [B,,B,]2 [B,,B,]2 | [E,B,E]2 [E,A,E]2 [E,G,E]2 .[C,G,]6 | %6
 [F,B,F]4 [F,B,D]2 [F,B,E]2 [F,B,D]2 [F,B,F]2 | [F,A,E]6 .[B,,B,]6 | %8
 [B,,B,]4 [B,,B,]2 [B,,B,]2 [B,,B,]2 [B,,B,]2 | [F,B,F]6 .[F,A,F]6 | %10
 [F,CE]2 [F,B,E]2 [F,A,E]2 [F,CE]2 [F,B,E]2 [F,A,E]2 | [B,,B,]6 [B,,B,]4 [B,,B,]2 | %12
 [E,B,E]2 [E,A,E]2 .[E,B,E]2 [D,C]4 [D,D]2 | [G,DG]2 [G,C^F]2 .[G,B,G]2[K:bass] .[C,G,]6 | %14
 [F,B,F]4 [F,B,D]2 [F,B,E]2 [F,B,D]2 [F,B,F]2 | [F,A,E]6 .[B,,B,]6 |] %16
V:3
 x12 | x12 | x12 | x12 | x12 | x12 | x12 | x12 | x12 | x12 | x12 | x12 | x12 | B2 .A3 D .[=Ec]6 | %14
 x12 | x12 |] %16

